X: 3
T: Appalachen
R: reel
M: 4/4
L: 1/8
K: Gmix
|:d>B d>f g2 f2|d>f d>c B2 G2|G>A B>c d>B d>f|g2 g>f g>a g>f|
d>B d>f g2 f2|d>f d>c B2 G2|G>A B>c d>B c>A|1 G2 G2 G2 G2:|2 G2 G2 G2 f>d||
|:B2 f>d c>f d>c|B>A G>F G2 d>f|g2 a2 _b>g f>d|c>B c>B c2 d>f|
g2 f2 d2 c2|d>f c2 _B2 G>A|_B>G d>B A>F c>A|1 G2 G2 G2 f>d:|2 G2 G2 G2 G2||

